X: 11351
M: 2/4
L: 1/16
K: Bb
V: 1 name="Eb Bugle" sname="EbBgl" staves=8
K: G
(GA) |\
V: 2 name="Bb Bugle" sname="BbBgl"
K: C
z2 |\
EGEG EGEG | EGEG EGEG | A2G2F2E2 | D2E2F2z2 :: (gf) |\
ecdB E2E2 | DEFG AcBA | c2B2 G2E2 | F2F2E2z2 H:|
V: 3 name="Bb Post Horn" sname="BbPHn"
K: C
cc |\
e2f2g2c2 | e2f2 g4 | a2g2f2e2 | d2e2 f2z2 :: gf |\
ecdB G2c2 | Bcde fagf | ecdB G2c2 | BcdB c2z2 H:|
V: 4 name="Bb Cornopeon" sname="BbCrn"
K: C
cc |\
c2d2e2c2 | c2d2 e4 | f2e2d2c2 | B2c2d2z2 :: z2 |\
EGFG E2E2 | D2D2D2D2 | EGFG E2E2 | D2D2E2z2 H:|
V: 5 name="Tenor Trombone" sname="TTbn" clef=bass middle=D
K: Bb
z2 |\
f2f2f2z2 | f2f2f2z2 | !/!f8 | f2f2d2z2 H:|
V: 6 name="Base Trombone" sname="BTbn" clef=bass middle=d
K: Bb
z2 |\
V: 7 name="1st Ophecleide" sname="Oph1" clef=bass middle=D
K: Bb
d2e2f2B2 | d2e2f4 | g2f2e2d2 |c2d2e2z2 :: z2 |\
d2c2c2z2 | A2B2c2c2 | d2c2c2c2 | c2c2d2z2 H:|
V: 8 name="2d Ophecleide" sname="Oph2" clef=bass middle=d
K: Bb
z2 |\
f2f2f2z2 | !/!f8 | !/!f8 | f2f2B2z2 H:|


